svg/s/AQ.svg

<svg width="16" height="12" viewBox="0 0 16 12" fill="none" xmlns="http://www.w3.org/2000/svg">
<mask id="mask0" mask-type="alpha" maskUnits="userSpaceOnUse" x="0" y="0" width="16" height="12">
<rect width="16" height="12" fill="white"/>
</mask>
<g mask="url(#mask0)">
<path fill-rule="evenodd" clip-rule="evenodd" d="M0 0V12H16V0H0Z" fill="#5196ED"/>
<mask id="mask1" mask-type="alpha" maskUnits="userSpaceOnUse" x="0" y="0" width="16" height="12">
<path fill-rule="evenodd" clip-rule="evenodd" d="M0 0V12H16V0H0Z" fill="white"/>
</mask>
<g mask="url(#mask1)">
<g filter="url(#filter0_d)">
<path fill-rule="evenodd" clip-rule="evenodd" d="M4.3587 3.94688C4.3587 3.94688 5.39076 4.51312 5.5343 4.66974C5.67777 4.82639 5.90775 5.40162 6.26639 5.07632C6.6251 4.75113 6.98374 5.00395 6.98374 4.48585C6.98374 3.96779 7.51926 2.76602 8.29631 3.06717C9.07343 3.36829 9.71235 3.17991 9.8916 3.3003C10.071 3.42077 10.5014 4.01901 10.8361 4.01901C11.171 4.01901 11.3382 4.36835 11.3622 4.87438C11.386 5.38045 11.2546 5.42878 11.5654 5.48911C11.8763 5.54929 11.9958 5.77831 11.8405 6.07943C11.6851 6.38066 11.6969 6.24811 11.7208 6.56138C11.7448 6.87465 11.4101 8.722 10.3817 8.90292C9.35344 9.08353 8.37879 8.98724 8.64194 8.63768C8.90495 8.28838 9.26904 7.88633 8.73114 7.802C8.19299 7.71756 7.85392 7.64577 7.31583 7.79031C6.77774 7.93489 6.21585 8.16372 5.88094 7.73009C5.54622 7.29632 5.61806 6.98305 5.34304 6.77821C5.0681 6.57342 4.73319 6.60953 5.00832 6.21193C5.28315 5.81434 5.51031 5.9628 5.28315 5.64957C5.05617 5.33638 4.1987 5.19991 4.1987 4.88676C4.1987 4.57337 3.6533 3.88662 4.3587 3.94688Z" fill="white"/>
<path fill-rule="evenodd" clip-rule="evenodd" d="M4.3587 3.94688C4.3587 3.94688 5.39076 4.51312 5.5343 4.66974C5.67777 4.82639 5.90775 5.40162 6.26639 5.07632C6.6251 4.75113 6.98374 5.00395 6.98374 4.48585C6.98374 3.96779 7.51926 2.76602 8.29631 3.06717C9.07343 3.36829 9.71235 3.17991 9.8916 3.3003C10.071 3.42077 10.5014 4.01901 10.8361 4.01901C11.171 4.01901 11.3382 4.36835 11.3622 4.87438C11.386 5.38045 11.2546 5.42878 11.5654 5.48911C11.8763 5.54929 11.9958 5.77831 11.8405 6.07943C11.6851 6.38066 11.6969 6.24811 11.7208 6.56138C11.7448 6.87465 11.4101 8.722 10.3817 8.90292C9.35344 9.08353 8.37879 8.98724 8.64194 8.63768C8.90495 8.28838 9.26904 7.88633 8.73114 7.802C8.19299 7.71756 7.85392 7.64577 7.31583 7.79031C6.77774 7.93489 6.21585 8.16372 5.88094 7.73009C5.54622 7.29632 5.61806 6.98305 5.34304 6.77821C5.0681 6.57342 4.73319 6.60953 5.00832 6.21193C5.28315 5.81434 5.51031 5.9628 5.28315 5.64957C5.05617 5.33638 4.1987 5.19991 4.1987 4.88676C4.1987 4.57337 3.6533 3.88662 4.3587 3.94688Z" fill="#F5F8FB"/>
</g>
</g>
</g>
<defs>
<filter id="filter0_d" x="3.69756" y="2.71941" width="8.51079" height="6.57268" filterUnits="userSpaceOnUse" color-interpolation-filters="sRGB">
<feFlood flood-opacity="0" result="BackgroundImageFix"/>
<feColorMatrix in="SourceAlpha" type="matrix" values="0 0 0 0 0 0 0 0 0 0 0 0 0 0 0 0 0 0 127 0"/>
<feOffset/>
<feGaussianBlur stdDeviation="0.15"/>
<feColorMatrix type="matrix" values="0 0 0 0 0.0941176 0 0 0 0 0.32549 0 0 0 0 0.639216 0 0 0 0.43 0"/>
<feBlend mode="normal" in2="BackgroundImageFix" result="effect1_dropShadow"/>
<feBlend mode="normal" in="SourceGraphic" in2="effect1_dropShadow" result="shape"/>
</filter>
</defs>
</svg>

<svg width="16" height="12" fill="none" xmlns="http://www.w3.org/2000/svg">
  <mask id="a" maskUnits="userSpaceOnUse" x="0" y="0" width="16" height="12">
    <path fill="#fff" d="M0 0h16v12H0z"/>
  </mask>
  <g mask="url(#a)">
    <path fill-rule="evenodd" clip-rule="evenodd" d="M0 0v12h16V0H0z" fill="#5196ED"/>
    <mask id="b" maskUnits="userSpaceOnUse" x="0" y="0" width="16" height="12">
      <path fill-rule="evenodd" clip-rule="evenodd" d="M0 0v12h16V0H0z" fill="#fff"/>
    </mask>
    <g filter="url(#AQ_-_Antarctica__filter0_d)" fill-rule="evenodd" clip-rule="evenodd" mask="url(#b)">
      <path d="M4.359 3.947s1.032.566 1.175.723c.144.156.374.732.732.406.36-.325.718-.072.718-.59s.535-1.72 1.312-1.419c.777.301 1.416.113 1.596.233.179.12.61.719.944.719.335 0 .502.35.526.855.024.506-.107.555.203.615.311.06.43.29.276.59-.156.302-.144.17-.12.482.024.314-.31 2.161-1.34 2.342-1.028.18-2.002.084-1.74-.265.264-.35.628-.752.09-.836-.538-.084-.877-.156-1.415-.012-.538.145-1.1.374-1.435-.06-.335-.434-.263-.747-.538-.952-.275-.205-.61-.168-.335-.566.275-.398.502-.25.275-.562C5.056 5.336 4.2 5.2 4.2 4.887c0-.314-.546-1 .16-.94z" fill="#fff"/>
      <path d="M4.359 3.947s1.032.566 1.175.723c.144.156.374.732.732.406.36-.325.718-.072.718-.59s.535-1.72 1.312-1.419c.777.301 1.416.113 1.596.233.179.12.61.719.944.719.335 0 .502.35.526.855.024.506-.107.555.203.615.311.06.43.29.276.59-.156.302-.144.17-.12.482.024.314-.31 2.161-1.34 2.342-1.028.18-2.002.084-1.74-.265.264-.35.628-.752.09-.836-.538-.084-.877-.156-1.415-.012-.538.145-1.1.374-1.435-.06-.335-.434-.263-.747-.538-.952-.275-.205-.61-.168-.335-.566.275-.398.502-.25.275-.562C5.056 5.336 4.2 5.2 4.2 4.887c0-.314-.546-1 .16-.94z" fill="#F5F8FB"/>
    </g>
  </g>
  <defs>
    <filter id="AQ_-_Antarctica__filter0_d" x="3.698" y="2.719" width="8.511" height="6.573" filterUnits="userSpaceOnUse" color-interpolation-filters="sRGB">
      <feFlood flood-opacity="0" result="BackgroundImageFix"/>
      <feColorMatrix in="SourceAlpha" values="0 0 0 0 0 0 0 0 0 0 0 0 0 0 0 0 0 0 127 0"/>
      <feOffset/>
      <feGaussianBlur stdDeviation=".15"/>
      <feColorMatrix values="0 0 0 0 0.0941176 0 0 0 0 0.32549 0 0 0 0 0.639216 0 0 0 0.43 0"/>
      <feBlend in2="BackgroundImageFix" result="effect1_dropShadow"/>
      <feBlend in="SourceGraphic" in2="effect1_dropShadow" result="shape"/>
    </filter>
  </defs>
</svg>
